X: 38857
T: Sunday Night
R: reel
M: 4/4
K: Amajor
||ecAB c2Bc|ecAB cBBc|ecAB c2Bc|efed cAAc|
ecAB c2Bc|ecAB cBBc|ecAB c2Bc|efed cAA2||
fgaf b2c'b|agfa eccB|AGAB c2Bc|efed cAA2|
fgaf b2c'b|agfa eccB|AGAB c2Bc|efed cAAc||

